X:1
T:Pæan, 76.76 D
T:Pæan, 76.76 D
T:Frederic Weber, 1856
T:Public Domain Courtesy of the Cyber Hymnal™
C:Frederic Weber, 1856
Z:Public Domain
Z:Courtesy of the Cyber Hymnal™
%%score ( 1 2 ) ( 3 4 )
L:1/8
Q:1/4=109
M:4/4
K:D
V:1 treble 
V:2 treble 
V:3 bass 
V:4 bass 
V:1
 [DA]2 | [DF]2 [DG]2 [EA]2 (Bc) | d4 [Fd]2 [DB]2 | [DA]2 (DE) [DF]2 [CE]2 | D6 [DA]2 | %5
 [DF]2 [DG]2 [EA]2 (Bc) | d4 [Fd]2 [DB]2 | [DA]2 (DE) [DF]2 [CE]2 | D6 [DF]2 | %9
 E2 [Ec]2 [EB]2 [EA]2 | ([FA]2 [E^G]2) [EA]2 [Ee]2 | [Ec]2 [EA]2 [DF]2 [D^G]2 | [EA]6 [DA]2 | %13
 [DB]2 [DG]2 [Dd]2 [DB]2 | A3 (z G) [DF]2 [DB]2 | [DA]2 (DE) [DF]2 [CE]2 | D6 |] %17
V:2
 x2 | x6 G2 | (F2 G2) x4 | x2 D2 x4 | D6 x2 | x6 G2 | (F2 G2) x4 | x2 D2 x4 | D6 x2 | E2 x6 | x8 | %11
 x8 | x8 | x8 | C2 E2 x5 | x2 D2 x4 | D6 |] %17
V:3
 [D,F,]2 | [D,A,]2 [B,,B,]2 [C,A,]2 [E,G,]2 | (A,2 B,2) [D,A,]2 G,2 | %3
 [F,A,]2 [G,B,]2 A,2 [A,,G,]2 | [D,F,]6 [D,F,]2 | [D,A,]2 [B,,B,]2 [C,A,]2 [E,G,]2 | %6
 (A,2 B,2) [D,A,]2 G,2 | [F,A,]2 [G,B,]2 A,2 [A,,G,]2 | [D,F,]6 [D,A,]2 | %9
 [C,A,]2 [A,,A,]2 [B,,^G,]2 [C,A,]2 | D4 [A,C]2 [^G,B,]2 | A,2 [C,A,]2 [D,A,]2 [B,,B,]2 | %12
 [A,,C]6 [F,A,]2 | G,2 [G,B,]2 [G,,B,]2 [G,,G,]2 | ([A,,E,]2 [C,A,]2) [D,A,]2 G,2 x | %15
 [D,F,]2 (F,G,) [A,,A,]2 [A,,G,]2 | [D,F,]6 |] %17
V:4
 x2 | x8 | D,4 G,2 x2 | x4 A,2 x2 | x8 | x8 | D,4 G,2 x2 | x4 A,2 x2 | x8 | x8 | (D,2 E,2) x4 | %11
 A,2 x6 | x8 | G,2 x6 | x6 (G,,B,,) x | x2 B,,2 x4 | x6 |] %17

